lib/components/Logo/assets/LogoBlack.svg

<svg width="81" height="16" viewBox="0 0 81 16" fill="none" xmlns="http://www.w3.org/2000/svg">
<path d="M7.99605 15.9822C7.18872 15.9918 6.38284 15.9113 5.59339 15.7422C4.95179 15.6042 4.32676 15.3982 3.72893 15.1276C3.22567 14.8976 2.7541 14.604 2.32578 14.2538C1.95686 13.9516 1.62174 13.6103 1.32627 13.236C0.680811 12.4279 0.227328 11.484 0 10.4754H5.61741C5.70387 10.7738 5.84748 11.0527 6.04028 11.2964C6.23969 11.5231 6.48123 11.7089 6.75149 11.8437C7.13125 12.027 7.55073 12.1128 7.97203 12.0934C8.42767 12.1323 8.88488 12.039 9.28868 11.8245C9.39372 11.7623 9.48222 11.6757 9.54663 11.5721C9.61104 11.4685 9.64948 11.3508 9.6587 11.2292C9.65463 11.102 9.61575 10.9784 9.54628 10.8717C9.47681 10.7651 9.3794 10.6795 9.26466 10.6243C8.93639 10.4375 8.58612 10.2923 8.22191 10.1922C7.78463 10.0625 7.29447 9.9329 6.73706 9.80327C6.17964 9.67364 5.62223 9.52961 5.0552 9.36158C4.48027 9.19723 3.91682 8.99515 3.36853 8.75665C2.83394 8.53122 2.33532 8.22874 1.88851 7.85885C1.45434 7.50472 1.09773 7.06511 0.84093 6.56736C0.566266 6.0026 0.43117 5.38027 0.44692 4.75256C0.457399 4.14196 0.622732 3.54398 0.927451 3.01459C1.2647 2.41162 1.7326 1.89162 2.29695 1.49265C2.98073 1.00926 3.74094 0.644098 4.54584 0.412418C5.55587 0.121105 6.60376 -0.0180566 7.65489 -0.000472905C8.39098 -0.00818232 9.12572 0.0642595 9.84611 0.215573C10.4422 0.341279 11.0224 0.532903 11.576 0.786899C12.0428 1.00502 12.4803 1.28084 12.8783 1.60787C13.2196 1.89682 13.5318 2.21842 13.8105 2.56809C14.4073 3.31484 14.8367 4.18096 15.0695 5.10785H9.45688C9.4137 4.8879 9.31437 4.68283 9.16854 4.51251C9.02689 4.3371 8.85012 4.1932 8.64956 4.09002C8.3774 3.95855 8.0771 3.8959 7.77502 3.90758C7.38332 3.87528 6.99038 3.95346 6.64095 4.13323C6.54601 4.18622 6.46619 4.26253 6.40901 4.35494C6.35183 4.44736 6.31919 4.55281 6.31419 4.66134C6.31419 4.9206 6.54003 5.14145 6.99653 5.25668C7.45304 5.3719 8.02487 5.53514 8.70722 5.67917C9.38958 5.8232 10.1248 5.99604 10.9177 6.19769C11.6897 6.39088 12.4341 6.68126 13.1329 7.06187C13.7951 7.41892 14.376 7.90936 14.8388 8.50218C15.3164 9.17135 15.5566 9.98077 15.5212 10.8019C15.5212 11.4824 15.3564 12.1529 15.0407 12.7559C14.694 13.4101 14.2006 13.9754 13.5991 14.4075C12.8883 14.9284 12.0913 15.3201 11.2444 15.5645C10.1858 15.8686 9.08783 16.0142 7.98643 15.9966" fill="#141416"/>
<path d="M20.211 5.08964H15.4922V0.432617H30.5472V5.08964H25.8284V15.5463H20.211V5.08964Z" fill="#141416"/>
<path d="M49.8047 0.432617H56.0948L60.2947 7.55738V0.432617H65.864V15.5463H59.5739L55.3837 8.42157V15.5463H49.8047V0.432617Z" fill="#141416"/>
<path d="M67.7969 0.432617H80.9971V4.74876H73.4143V6.15547H80.9971V9.82347H73.4143V11.2302H80.9971V15.5463H67.7969V0.432617Z" fill="#141416"/>
<path d="M39.5983 11.2056C38.9703 11.1811 38.3634 10.9727 37.853 10.6063C37.3426 10.2399 36.9513 9.73164 36.7277 9.14476C36.5042 8.55789 36.4583 7.91831 36.5957 7.30556C36.7331 6.69282 37.0478 6.13396 37.5006 5.69851C37.9535 5.26306 38.5244 4.97024 39.1425 4.85646C39.7606 4.74268 40.3986 4.81297 40.977 5.05859C41.5554 5.3042 42.0488 5.7143 42.3957 6.23787C42.7427 6.76144 42.9279 7.37538 42.9284 8.00332C42.9203 8.43207 42.8277 8.85502 42.656 9.24801C42.4842 9.64101 42.2366 9.99634 41.9274 10.2937C41.6181 10.5911 41.2533 10.8247 40.8536 10.9812C40.454 11.1376 40.0275 11.2139 39.5983 11.2056ZM47.9596 4.86823C47.5444 3.90704 46.9322 3.04349 46.1624 2.33328C45.3374 1.58869 44.3764 1.01001 43.3321 0.628904C40.917 -0.209635 38.2893 -0.209635 35.8742 0.628904C34.8286 1.00725 33.8671 1.58624 33.0439 2.33328C32.2711 3.04089 31.6584 3.90512 31.2467 4.86823C30.8312 5.85627 30.6172 6.91721 30.6172 7.98892C30.6172 9.06063 30.8312 10.1216 31.2467 11.1096C31.6571 12.0749 32.2699 12.9409 33.0439 13.6494C33.8671 14.3964 34.8286 14.9754 35.8742 15.3537C38.2904 16.1859 40.9159 16.1859 43.3321 15.3537C44.3764 14.9726 45.3374 14.3939 46.1624 13.6494C46.9334 12.9383 47.5458 12.0729 47.9596 11.1096C48.372 10.1208 48.5843 9.06015 48.5843 7.98892C48.5843 6.91769 48.372 5.85706 47.9596 4.86823Z" fill="#141416"/>
</svg>

<svg xmlns="http://www.w3.org/2000/svg" width="81" height="16" fill="none" viewBox="0 0 81 16"><path fill="#141416" d="M7.996 15.982c-.807.01-1.613-.07-2.403-.24a9.2 9.2 0 0 1-1.864-.614 6.46 6.46 0 0 1-2.403-1.892A6.8 6.8 0 0 1 0 10.476h5.617a2.4 2.4 0 0 0 .423.82c.2.227.441.413.711.548.38.183.8.269 1.221.25.456.038.913-.055 1.317-.27a.76.76 0 0 0 .37-.595.7.7 0 0 0-.394-.605 4.5 4.5 0 0 0-1.043-.432c-.437-.13-.928-.26-1.485-.389a29 29 0 0 1-1.682-.441 14 14 0 0 1-1.686-.605 6 6 0 0 1-1.48-.898A4.1 4.1 0 0 1 .84 6.567a3.9 3.9 0 0 1-.394-1.814c.01-.611.176-1.209.48-1.738a4.6 4.6 0 0 1 1.37-1.522A7.5 7.5 0 0 1 4.546.413 10.6 10.6 0 0 1 7.655 0c.736-.008 1.47.064 2.191.216a8.2 8.2 0 0 1 1.73.57c.467.219.904.495 1.302.822q.514.434.932.96a6.7 6.7 0 0 1 1.26 2.54H9.456a1.3 1.3 0 0 0-.288-.595 1.6 1.6 0 0 0-.52-.423 1.85 1.85 0 0 0-.874-.182 2.1 2.1 0 0 0-1.134.225.64.64 0 0 0-.327.528c0 .26.226.48.683.596.456.115 1.028.278 1.71.422q1.023.216 2.21.519a9.4 9.4 0 0 1 2.216.864 5.4 5.4 0 0 1 1.706 1.44c.477.67.718 1.479.682 2.3 0 .68-.165 1.35-.48 1.954a4.8 4.8 0 0 1-1.442 1.652c-.71.52-1.508.912-2.355 1.157-1.058.304-2.156.45-3.258.432M20.211 5.09h-4.719V.433h15.055V5.09h-4.719v10.456h-5.617zM49.805.433h6.29l4.2 7.124V.433h5.569v15.113h-6.29l-4.19-7.124v7.124h-5.58zM67.797.433h13.2v4.316h-7.583v1.406h7.583v3.668h-7.583v1.407h7.583v4.316h-13.2zM39.598 11.206a3.21 3.21 0 0 1-2.87-2.061 3.2 3.2 0 0 1 2.414-4.289 3.21 3.21 0 0 1 3.254 1.382 3.2 3.2 0 0 1 .532 1.765 3.263 3.263 0 0 1-3.33 3.203m8.362-6.338a7.5 7.5 0 0 0-1.798-2.535A8.7 8.7 0 0 0 43.332.63a11.37 11.37 0 0 0-7.458 0 8.5 8.5 0 0 0-2.83 1.704 7.4 7.4 0 0 0-1.797 2.535 8.05 8.05 0 0 0 0 6.242 7.3 7.3 0 0 0 1.797 2.54 8.5 8.5 0 0 0 2.83 1.704c2.416.832 5.042.832 7.458 0a8.7 8.7 0 0 0 2.83-1.705 7.5 7.5 0 0 0 1.798-2.54 8.1 8.1 0 0 0 0-6.24"/></svg>
